assets/img/braze_icons/contrast-02.svg

<svg fill="none" height="24" viewBox="0 0 24 24" width="24" xmlns="http://www.w3.org/2000/svg"><path clip-rule="evenodd" d="m1 12c0-6.07513 4.92487-11 11-11 6.0751 0 11 4.92487 11 11 0 6.0751-4.9249 11-11 11-6.07513 0-11-4.9249-11-11zm20 0c0 4.4272-3.1966 8.1078-7.4076 8.8596-.4539.081-.6808.1215-.933.0301-.1986-.0719-.4194-.2568-.5251-.4396-.1343-.2323-.1343-.5049-.1343-1.0501v-14.8c0-.5452 0-.81781.1343-1.05007.1057-.18282.3265-.36772.5251-.43965.2522-.09138.4791-.05087.933.03015 4.211.7518 7.4076 4.43238 7.4076 8.85957z" fill="#801ed7" fill-rule="evenodd"/></svg>

<svg width="24" height="24" viewBox="0 0 24 24" fill="none" xmlns="http://www.w3.org/2000/svg">
<path fill-rule="evenodd" clip-rule="evenodd" d="M1 12C1 5.92487 5.92487 1 12 1C18.0751 1 23 5.92487 23 12C23 18.0751 18.0751 23 12 23C5.92487 23 1 18.0751 1 12ZM21 12C21 16.4272 17.8034 20.1078 13.5924 20.8596C13.1385 20.9406 12.9116 20.9811 12.6594 20.8897C12.4608 20.8178 12.24 20.6329 12.1343 20.4501C12 20.2178 12 19.9452 12 19.4V4.6C12 4.0548 12 3.78219 12.1343 3.54993C12.24 3.36711 12.4608 3.18221 12.6594 3.11028C12.9116 3.0189 13.1385 3.05941 13.5924 3.14043C17.8034 3.89223 21 7.57281 21 12Z" fill="#801ED7"/>
</svg>
